suite-common/icons/assets/icons/notifications.svg

<svg xmlns="http://www.w3.org/2000/svg" xml:space="preserve" fill="none" viewBox="0 0 24 24">
  <path fill="#000" fill-rule="evenodd" d="M11.48 2.282c-3.219.227-5.896 2.455-6.722 5.594-.173.659-.204.983-.238 2.544-.042 1.952-.136 2.839-.422 4.005a8.4 8.4 0 0 1-.668 1.815c-.278.567-.285.588-.301.94-.014.3-.002.399.071.594.188.498.631.858 1.16.943.358.058 14.919.059 15.274.001.493-.08.914-.392 1.119-.83.095-.203.107-.274.105-.648l-.002-.42-.284-.58c-.765-1.558-1.027-2.941-1.092-5.76-.036-1.534-.071-1.896-.256-2.6a7.76 7.76 0 0 0-2.68-4.054A7.7 7.7 0 0 0 13.448 2.4c-.368-.074-1.259-.166-1.468-.153zm1.508 1.558a6 6 0 0 1 4.307 3.195c.542 1.063.702 1.895.704 3.665.004 2.544.434 4.703 1.242 6.23l.164.31H4.599l.197-.393c.811-1.616 1.201-3.62 1.205-6.187.002-1.409.078-2.067.327-2.8A6.02 6.02 0 0 1 11.1 3.82a6.8 6.8 0 0 1 1.888.02M8.805 20.279c-.381.092-.618.496-.526.898.071.31.317.522.653.563.114.013 1.576.019 3.248.012 2.739-.011 3.052-.019 3.16-.078a.71.71 0 0 0 .393-.674.71.71 0 0 0-.393-.674c-.109-.06-.421-.067-3.26-.072-1.727-.004-3.201.008-3.275.025"/>
</svg>

<svg xmlns="http://www.w3.org/2000/svg" xml:space="preserve" fill="none" viewBox="0 0 24 24"><path d="M11.480 2.282 C 8.261 2.509,5.584 4.737,4.758 7.876 C 4.585 8.535,4.554 8.859,4.520 10.420 C 4.478 12.372,4.384 13.259,4.098 14.425 C 3.940 15.069,3.746 15.597,3.430 16.240 C 3.152 16.807,3.145 16.828,3.129 17.180 C 3.115 17.480,3.127 17.579,3.200 17.774 C 3.388 18.272,3.831 18.632,4.360 18.717 C 4.718 18.775,19.279 18.776,19.634 18.718 C 20.127 18.638,20.548 18.326,20.753 17.888 C 20.848 17.685,20.860 17.614,20.858 17.240 L 20.856 16.820 20.572 16.240 C 19.807 14.682,19.545 13.299,19.480 10.480 C 19.444 8.946,19.409 8.584,19.224 7.880 C 18.815 6.318,17.823 4.818,16.544 3.826 C 15.657 3.138,14.520 2.614,13.448 2.400 C 13.080 2.326,12.189 2.234,11.980 2.247 C 11.936 2.250,11.711 2.265,11.480 2.282 M12.988 3.840 C 14.858 4.176,16.433 5.345,17.295 7.035 C 17.837 8.098,17.997 8.930,17.999 10.700 C 18.003 13.244,18.433 15.403,19.241 16.930 L 19.405 17.240 12.002 17.240 L 4.599 17.240 4.796 16.847 C 5.607 15.231,5.997 13.227,6.001 10.660 C 6.003 9.251,6.079 8.593,6.328 7.860 C 7.056 5.713,8.874 4.174,11.100 3.820 C 11.615 3.738,12.474 3.747,12.988 3.840 M8.805 20.279 C 8.424 20.371,8.187 20.775,8.279 21.177 C 8.350 21.487,8.596 21.699,8.932 21.740 C 9.046 21.753,10.508 21.759,12.180 21.752 C 14.919 21.741,15.232 21.733,15.340 21.674 C 15.605 21.528,15.733 21.307,15.733 21.000 C 15.733 20.693,15.605 20.472,15.340 20.326 C 15.231 20.266,14.919 20.259,12.080 20.254 C 10.353 20.250,8.879 20.262,8.805 20.279 " stroke="none" fill-rule="evenodd" fill="black"></path></svg>
